X: 3216
T: Before And After
R: polka
M: 2/4
K: Dmajor
|:dA Bc|dc BA|FA DD|dA Bc|dA Bc|
dc BA|FA DD|EA Bc|1 d2- dB/c/:|2 d2- de||
|:fd ge|fd Ae|fd df|ef g2|fd df|
ec AA|Bc dc|BA FE|1 D2- De:|2 D2- DB/c/||

